dist/img/header/icons/Eng.svg

<svg width="70" height="70" viewBox="0 0 70 70" fill="none" xmlns="http://www.w3.org/2000/svg">
<circle cx="35" cy="35" r="35" fill="#876191"/>
<path d="M18.28 33.82H25.24V35.96H18.28V33.82ZM18.48 39.82H26.38V42H15.88V28H26.1V30.18H18.48V39.82ZM35.0984 31.2C35.9518 31.2 36.7118 31.3667 37.3784 31.7C38.0584 32.0333 38.5918 32.5467 38.9784 33.24C39.3651 33.92 39.5584 34.8 39.5584 35.88V42H37.0584V36.2C37.0584 35.2533 36.8318 34.5467 36.3784 34.08C35.9384 33.6133 35.3184 33.38 34.5184 33.38C33.9318 33.38 33.4118 33.5 32.9584 33.74C32.5051 33.98 32.1518 34.34 31.8984 34.82C31.6584 35.2867 31.5384 35.88 31.5384 36.6V42H29.0384V31.32H31.4184V34.2L30.9984 33.32C31.3718 32.64 31.9118 32.12 32.6184 31.76C33.3384 31.3867 34.1651 31.2 35.0984 31.2ZM47.5894 46.02C46.6027 46.02 45.636 45.8867 44.6894 45.62C43.756 45.3667 42.9894 44.9933 42.3894 44.5L43.5094 42.62C43.976 43.0067 44.5627 43.3133 45.2694 43.54C45.9894 43.78 46.716 43.9 47.4494 43.9C48.6227 43.9 49.4827 43.6267 50.0294 43.08C50.576 42.5467 50.8494 41.74 50.8494 40.66V38.76L51.0494 36.34L50.9694 33.92V31.32H53.3494V40.38C53.3494 42.3133 52.856 43.7333 51.8694 44.64C50.8827 45.56 49.456 46.02 47.5894 46.02ZM47.2694 41.52C46.256 41.52 45.336 41.3067 44.5094 40.88C43.696 40.44 43.0494 39.8333 42.5694 39.06C42.1027 38.2867 41.8694 37.38 41.8694 36.34C41.8694 35.3133 42.1027 34.4133 42.5694 33.64C43.0494 32.8667 43.696 32.2667 44.5094 31.84C45.336 31.4133 46.256 31.2 47.2694 31.2C48.176 31.2 48.9894 31.38 49.7094 31.74C50.4294 32.1 51.0027 32.66 51.4294 33.42C51.8694 34.18 52.0894 35.1533 52.0894 36.34C52.0894 37.5267 51.8694 38.5067 51.4294 39.28C51.0027 40.04 50.4294 40.6067 49.7094 40.98C48.9894 41.34 48.176 41.52 47.2694 41.52ZM47.6494 39.4C48.276 39.4 48.836 39.2733 49.3294 39.02C49.8227 38.7533 50.2027 38.3933 50.4694 37.94C50.7494 37.4733 50.8894 36.94 50.8894 36.34C50.8894 35.74 50.7494 35.2133 50.4694 34.76C50.2027 34.2933 49.8227 33.94 49.3294 33.7C48.836 33.4467 48.276 33.32 47.6494 33.32C47.0227 33.32 46.456 33.4467 45.9494 33.7C45.456 33.94 45.0694 34.2933 44.7894 34.76C44.5227 35.2133 44.3894 35.74 44.3894 36.34C44.3894 36.94 44.5227 37.4733 44.7894 37.94C45.0694 38.3933 45.456 38.7533 45.9494 39.02C46.456 39.2733 47.0227 39.4 47.6494 39.4Z" fill="white"/>
</svg>

<svg width="70" height="70" fill="none" xmlns="http://www.w3.org/2000/svg"><circle cx="35" cy="35" r="35" fill="#876191"/><path d="M18.28 33.82h6.96v2.14h-6.96v-2.14Zm.2 6h7.9V42h-10.5V28H26.1v2.18h-7.62v9.64Zm16.618-8.62c.854 0 1.614.167 2.28.5.68.333 1.214.847 1.6 1.54.387.68.58 1.56.58 2.64V42h-2.5v-5.8c0-.947-.226-1.653-.68-2.12-.44-.467-1.06-.7-1.86-.7-.586 0-1.106.12-1.56.36-.453.24-.806.6-1.06 1.08-.24.467-.36 1.06-.36 1.78V42h-2.5V31.32h2.38v2.88l-.42-.88c.374-.68.914-1.2 1.62-1.56.72-.373 1.547-.56 2.48-.56ZM47.59 46.02c-.986 0-1.953-.133-2.9-.4-.933-.253-1.7-.627-2.3-1.12l1.12-1.88c.467.387 1.054.693 1.76.92.72.24 1.447.36 2.18.36 1.174 0 2.034-.273 2.58-.82.547-.533.82-1.34.82-2.42v-1.9l.2-2.42-.08-2.42v-2.6h2.38v9.06c0 1.933-.493 3.353-1.48 4.26-.986.92-2.413 1.38-4.28 1.38Zm-.32-4.5c-1.013 0-1.933-.213-2.76-.64a5.094 5.094 0 0 1-1.94-1.82c-.466-.773-.7-1.68-.7-2.72 0-1.027.234-1.927.7-2.7a4.945 4.945 0 0 1 1.94-1.8c.827-.427 1.747-.64 2.76-.64.907 0 1.72.18 2.44.54.72.36 1.294.92 1.72 1.68.44.76.66 1.733.66 2.92 0 1.187-.22 2.167-.66 2.94-.426.76-1 1.327-1.72 1.7-.72.36-1.533.54-2.44.54Zm.38-2.12c.627 0 1.187-.127 1.68-.38a2.876 2.876 0 0 0 1.14-1.08c.28-.467.42-1 .42-1.6 0-.6-.14-1.127-.42-1.58a2.582 2.582 0 0 0-1.14-1.06c-.493-.253-1.053-.38-1.68-.38-.626 0-1.193.127-1.7.38-.493.24-.88.593-1.16 1.06-.266.453-.4.98-.4 1.58 0 .6.134 1.133.4 1.6.28.453.667.813 1.16 1.08.507.253 1.074.38 1.7.38Z" fill="#fff"/></svg>
